fl/VA.svg

<svg viewBox="0 0 21 15" version="1.1" xmlns="http://www.w3.org/2000/svg" height="1em" width="1em">
  <defs>
    <linearGradient x1="50%" y1="0%" x2="50%" y2="100%" id="a">
      <stop stop-color="#FFFFFF" offset="0%"/>
      <stop stop-color="#F0F0F0" offset="100%"/>
    </linearGradient>
    <linearGradient x1="50%" y1="0%" x2="50%" y2="100%" id="b">
      <stop stop-color="#FDE048" offset="0%"/>
      <stop stop-color="#FFDF32" offset="100%"/>
    </linearGradient>
    <linearGradient x1="50%" y1="0%" x2="50%" y2="100%" id="c">
      <stop stop-color="#CDCCCC" offset="0%"/>
      <stop stop-color="#E4E4E4" offset="100%"/>
    </linearGradient>
    <linearGradient x1="50%" y1="0%" x2="50%" y2="100%" id="d">
      <stop stop-color="#CD9D25" offset="0%"/>
      <stop stop-color="#EBB93A" offset="100%"/>
    </linearGradient>
    <linearGradient x1="50%" y1="0%" x2="50%" y2="100%" id="e">
      <stop stop-color="#F5252C" offset="0%"/>
      <stop stop-color="#F6151C" offset="100%"/>
    </linearGradient>
  </defs>
  <g stroke="none" stroke-width="1" fill="none" fill-rule="evenodd">
    <g>
      <rect fill="url(#a)" x="0" y="0" width="21" height="15"/>
      <rect fill="url(#b)" x="0" y="0" width="21" height="15"/>
      <rect fill="url(#a)" x="10" y="0" width="11" height="15"/>
      <path d="M18.6819805,8.02512627 C19.267767,7.43933983 19.267767,6.48959236 18.6819805,5.90380592 C18.0961941,5.31801948 17.1464466,5.31801948 16.5606602,5.90380592 C16.0988421,6.36562402 16.0011088,7.05365542 16.2674604,7.61121929 L14.0857864,9.79289322 L13.732233,9.43933983 L13.3786797,9.08578644 L12.6715729,9.79289322 L13.0251263,10.1464466 L13.732233,10.8535534 L14.0857864,11.2071068 L14.4393398,10.8535534 L16.9745671,8.31832607 C17.532131,8.58467763 18.2201624,8.48694436 18.6819805,8.02512627 Z" fill="url(#c)" transform="translate(15.896447, 8.335786) scale(1, -1) translate(-15.896447, -8.335786)"/>
      <path d="M14.0254329,8.31832607 C13.467869,8.58467763 12.7798376,8.48694436 12.3180195,8.02512627 C11.732233,7.43933983 11.732233,6.48959236 12.3180195,5.90380592 C12.9038059,5.31801948 13.8535534,5.31801948 14.4393398,5.90380592 C14.9011579,6.36562402 14.9988912,7.05365542 14.7325396,7.61121929 L16.9142136,9.79289322 L17.267767,9.43933983 L17.6213203,9.08578644 L18.3284271,9.79289322 L17.9748737,10.1464466 L17.267767,10.8535534 L16.9142136,11.2071068 L16.5606602,10.8535534 L14.0254329,8.31832607 L14.0254329,8.31832607 Z" fill="url(#d)" transform="translate(15.103553, 8.335786) scale(1, -1) translate(-15.103553, -8.335786)"/>
      <path d="M15.5,5 C14.6715729,5 14,4.77614237 14,4.5 C14,4.22385763 14.6715729,4 15.5,4 C16.3284271,4 17,4.22385763 17,4.5 C17,4.77614237 16.3284271,5 15.5,5 Z M15.5,2.5 C15.0857864,2.5 14.75,2.38807119 14.75,2.25 C14.75,2.11192881 15.0857864,2 15.5,2 C15.9142136,2 16.25,2.11192881 16.25,2.25 C16.25,2.38807119 15.9142136,2.5 15.5,2.5 Z M15.5,3.66666667 C14.9477153,3.66666667 14.5,3.51742825 14.5,3.33333333 C14.5,3.14923842 14.9477153,3 15.5,3 C16.0522847,3 16.5,3.14923842 16.5,3.33333333 C16.5,3.51742825 16.0522847,3.66666667 15.5,3.66666667 Z" fill="url(#d)"/>
      <path d="M13.0256584,10.6581139 C13.1062214,10.899803 13.2733309,11.2340221 13.5533894,11.5700922 C14.0329058,12.1455119 14.6828006,12.5 15.5,12.5 C16.3171994,12.5 16.9670942,12.1455119 17.4466106,11.5700922 C17.7266691,11.2340221 17.8937786,10.899803 17.9743416,10.6581139 C18.0616655,10.3961422 17.9200855,10.1129822 17.6581139,10.0256584 C17.3961422,9.93833446 17.1129822,10.0799145 17.0256584,10.3418861 C16.9812214,10.475197 16.8670809,10.7034779 16.6783894,10.9299078 C16.3766558,11.2919881 15.9953006,11.5 15.5,11.5 C15.0046994,11.5 14.6233442,11.2919881 14.3216106,10.9299078 C14.1329191,10.7034779 14.0187786,10.475197 13.9743416,10.3418861 C13.8870178,10.0799145 13.6038578,9.93833446 13.3418861,10.0256584 C13.0799145,10.1129822 12.9383345,10.3961422 13.0256584,10.6581139 Z" fill="url(#e)" fill-rule="nonzero"/>
    </g>
  </g>
</svg>

<svg viewBox="0 0 21 15" xmlns="http://www.w3.org/2000/svg" height="1em" width="1em">
  <defs>
    <linearGradient x1="50%" y1="0%" x2="50%" y2="100%" id="a">
      <stop stop-color="#FFF" offset="0%"/>
      <stop stop-color="#F0F0F0" offset="100%"/>
    </linearGradient>
    <linearGradient x1="50%" y1="0%" x2="50%" y2="100%" id="b">
      <stop stop-color="#FDE048" offset="0%"/>
      <stop stop-color="#FFDF32" offset="100%"/>
    </linearGradient>
    <linearGradient x1="50%" y1="0%" x2="50%" y2="100%" id="c">
      <stop stop-color="#CDCCCC" offset="0%"/>
      <stop stop-color="#E4E4E4" offset="100%"/>
    </linearGradient>
    <linearGradient x1="50%" y1="0%" x2="50%" y2="100%" id="d">
      <stop stop-color="#CD9D25" offset="0%"/>
      <stop stop-color="#EBB93A" offset="100%"/>
    </linearGradient>
    <linearGradient x1="50%" y1="0%" x2="50%" y2="100%" id="e">
      <stop stop-color="#F5252C" offset="0%"/>
      <stop stop-color="#F6151C" offset="100%"/>
    </linearGradient>
  </defs>
  <g fill="none" fill-rule="evenodd">
    <path fill="url(#a)" d="M0 0h21v15H0z"/>
    <path fill="url(#b)" d="M0 0h21v15H0z"/>
    <path fill="url(#a)" d="M10 0h11v15H10z"/>
    <path d="M18.682 8.025a1.5 1.5 0 1 0-2.415-.414l-2.181 2.182-.354-.354-.353-.353-.707.707.353.353.707.708.354.353.353-.353 2.536-2.536a1.5 1.5 0 0 0 1.707-.293Z" fill="url(#c)" transform="matrix(1 0 0 -1 0 16.672)"/>
    <path d="M14.025 8.318a1.5 1.5 0 1 1 .708-.707l2.181 2.182.354-.354.353-.353.707.707-.353.353-.707.708-.354.353-.353-.353-2.536-2.536Z" fill="url(#d)" transform="matrix(1 0 0 -1 0 16.672)"/>
    <path d="M15.5 5c-.828 0-1.5-.224-1.5-.5s.672-.5 1.5-.5 1.5.224 1.5.5-.672.5-1.5.5Zm0-2.5c-.414 0-.75-.112-.75-.25s.336-.25.75-.25.75.112.75.25-.336.25-.75.25Zm0 1.167c-.552 0-1-.15-1-.334 0-.184.448-.333 1-.333s1 .15 1 .333c0 .184-.448.334-1 .334Z" fill="url(#d)"/>
    <path d="M13.026 10.658c.08.242.247.576.527.912.48.576 1.13.93 1.947.93.817 0 1.467-.354 1.947-.93.28-.336.447-.67.527-.912a.5.5 0 1 0-.948-.316 1.98 1.98 0 0 1-.348.588c-.301.362-.683.57-1.178.57-.495 0-.877-.208-1.178-.57a1.98 1.98 0 0 1-.348-.588.5.5 0 1 0-.948.316Z" fill="url(#e)" fill-rule="nonzero"/>
  </g>
</svg>
